svg/color/cashdog.svg

<?xml version="1.0" encoding="UTF-8" ?>
<!DOCTYPE svg PUBLIC "-//W3C//DTD SVG 1.1//EN" "http://www.w3.org/Graphics/SVG/1.1/DTD/svg11.dtd">
<svg width="250pt" height="250pt" viewBox="0 0 250 250" version="1.1" xmlns="http://www.w3.org/2000/svg">
<g id="#f6f5f4ff">
<path fill="#f6f5f4" opacity="1.00" d=" M 0.00 0.00 L 250.00 0.00 L 250.00 250.00 L 0.00 250.00 L 0.00 0.00 M 157.62 77.32 C 161.86 81.03 168.07 82.87 170.41 88.44 C 177.13 102.07 181.11 116.80 186.13 131.09 C 186.56 132.13 186.79 133.71 188.24 133.71 C 192.70 134.44 196.36 131.18 199.43 128.43 C 207.15 120.29 209.69 108.87 211.29 98.11 C 211.48 91.65 214.20 84.64 210.51 78.67 C 196.88 79.37 183.23 77.00 170.33 72.64 C 166.93 71.57 163.65 69.80 160.05 69.59 C 156.36 69.83 154.90 75.07 157.62 77.32 M 39.83 79.87 C 35.51 84.68 38.51 91.66 38.57 97.39 C 39.99 108.70 42.52 120.84 50.61 129.40 C 53.96 132.39 58.32 135.91 63.12 134.37 C 68.46 119.09 72.56 103.27 79.91 88.77 C 82.52 83.30 88.75 81.49 93.07 77.79 C 94.08 75.74 94.19 72.26 91.77 71.09 C 89.78 69.75 87.34 70.83 85.32 71.54 C 70.87 77.21 55.34 80.03 39.83 79.87 M 83.39 120.62 C 84.05 120.71 85.38 120.90 86.04 120.99 C 86.93 118.25 87.72 114.95 90.62 113.65 C 93.43 111.52 97.39 113.15 99.32 115.68 C 100.25 117.59 100.70 119.72 101.86 121.53 C 102.31 121.34 103.21 120.95 103.66 120.76 C 105.06 114.69 99.03 108.69 93.02 109.48 C 87.38 109.51 82.93 115.14 83.39 120.62 M 153.45 109.71 C 150.46 110.54 148.23 113.03 146.67 115.60 C 146.37 117.61 145.14 121.20 148.13 121.54 C 149.97 118.84 149.79 114.51 153.55 113.49 C 156.06 111.76 159.13 113.01 161.15 114.87 C 163.09 116.75 162.84 119.96 164.98 121.67 C 167.79 119.95 166.16 116.32 164.90 114.10 C 162.56 110.23 157.75 108.66 153.45 109.71 M 109.41 133.11 C 108.79 138.06 112.53 142.02 115.77 145.24 C 117.79 147.37 120.83 148.47 122.41 150.98 C 122.72 156.63 119.92 163.07 114.27 165.05 C 110.09 166.31 105.14 166.08 101.60 163.31 C 98.48 160.98 97.43 156.99 96.63 153.38 C 94.84 153.40 93.05 153.40 91.26 153.38 C 91.00 163.49 100.81 172.47 110.86 171.43 C 110.27 175.93 110.55 180.49 110.55 185.03 C 110.21 193.23 118.05 199.92 126.00 199.39 C 130.54 198.76 134.97 196.22 137.17 192.10 C 140.98 185.94 138.93 178.42 139.59 171.61 L 138.76 171.46 C 148.90 172.68 158.99 163.69 158.66 153.45 C 157.00 153.42 155.33 153.37 153.67 153.29 C 152.82 156.53 151.86 159.97 149.40 162.41 C 143.55 168.24 131.73 166.44 128.90 158.30 C 128.02 155.48 126.10 151.22 129.18 149.14 C 133.74 145.86 138.45 142.00 140.40 136.55 C 141.96 131.73 138.37 125.78 132.99 126.32 C 129.62 126.07 127.49 128.99 125.00 130.70 C 123.22 129.56 121.89 127.81 119.94 126.93 C 115.53 124.71 109.42 128.04 109.41 133.11 Z" />
<path fill="#f6f5f4" opacity="1.00" d=" M 117.88 180.16 C 119.77 178.21 122.72 177.74 125.00 176.31 C 127.29 178.02 131.33 177.95 132.09 181.15 C 130.05 181.35 128.01 181.43 125.97 181.47 C 128.38 182.13 130.68 183.11 132.88 184.28 C 133.12 188.82 127.89 188.91 124.99 190.77 C 122.99 189.65 120.87 188.74 118.60 188.33 C 118.42 187.66 118.07 186.32 117.89 185.65 C 119.96 185.55 122.04 185.53 124.11 185.49 C 121.72 184.30 116.47 183.98 117.88 180.16 Z" />
</g>
<g id="#000000ff">
<path fill="#000000" opacity="1.00" d=" M 157.62 77.32 C 154.90 75.07 156.36 69.83 160.05 69.59 C 163.65 69.80 166.93 71.57 170.33 72.64 C 183.23 77.00 196.88 79.37 210.51 78.67 C 214.20 84.64 211.48 91.65 211.29 98.11 C 209.69 108.87 207.15 120.29 199.43 128.43 C 196.36 131.18 192.70 134.44 188.24 133.71 C 186.79 133.71 186.56 132.13 186.13 131.09 C 181.11 116.80 177.13 102.07 170.41 88.44 C 168.07 82.87 161.86 81.03 157.62 77.32 Z" />
<path fill="#000000" opacity="1.00" d=" M 39.83 79.87 C 55.34 80.03 70.87 77.21 85.32 71.54 C 87.34 70.83 89.78 69.75 91.77 71.09 C 94.19 72.26 94.08 75.74 93.07 77.79 C 88.75 81.49 82.52 83.30 79.91 88.77 C 72.56 103.27 68.46 119.09 63.12 134.37 C 58.32 135.91 53.96 132.39 50.61 129.40 C 42.52 120.84 39.99 108.70 38.57 97.39 C 38.51 91.66 35.51 84.68 39.83 79.87 Z" />
<path fill="#000000" opacity="1.00" d=" M 83.39 120.62 C 82.93 115.14 87.38 109.51 93.02 109.48 C 99.03 108.69 105.06 114.69 103.66 120.76 C 103.21 120.95 102.31 121.34 101.86 121.53 C 100.70 119.72 100.25 117.59 99.32 115.68 C 97.39 113.15 93.43 111.52 90.62 113.65 C 87.72 114.95 86.93 118.25 86.04 120.99 C 85.38 120.90 84.05 120.71 83.39 120.62 Z" />
<path fill="#000000" opacity="1.00" d=" M 153.45 109.71 C 157.75 108.66 162.56 110.23 164.90 114.10 C 166.16 116.32 167.79 119.95 164.98 121.67 C 162.84 119.96 163.09 116.75 161.15 114.87 C 159.13 113.01 156.06 111.76 153.55 113.49 C 149.79 114.51 149.97 118.84 148.13 121.54 C 145.14 121.20 146.37 117.61 146.67 115.60 C 148.23 113.03 150.46 110.54 153.45 109.71 Z" />
<path fill="#000000" opacity="1.00" d=" M 109.41 133.11 C 109.42 128.04 115.53 124.71 119.94 126.93 C 121.89 127.81 123.22 129.56 125.00 130.70 C 127.49 128.99 129.62 126.07 132.99 126.32 C 138.37 125.78 141.96 131.73 140.40 136.55 C 138.45 142.00 133.74 145.86 129.18 149.14 C 126.10 151.22 128.02 155.48 128.90 158.30 C 131.73 166.44 143.55 168.24 149.40 162.41 C 151.86 159.97 152.82 156.53 153.67 153.29 C 155.33 153.37 157.00 153.42 158.66 153.45 C 158.99 163.69 148.90 172.68 138.76 171.46 C 133.08 170.99 128.67 167.17 125.00 163.15 C 121.29 167.32 116.67 171.06 110.86 171.43 C 100.81 172.47 91.00 163.49 91.26 153.38 C 93.05 153.40 94.84 153.40 96.63 153.38 C 97.43 156.99 98.48 160.98 101.60 163.31 C 105.14 166.08 110.09 166.31 114.27 165.05 C 119.92 163.07 122.72 156.63 122.41 150.98 C 120.83 148.47 117.79 147.37 115.77 145.24 C 112.53 142.02 108.79 138.06 109.41 133.11 Z" />
</g>
<g id="#fb295cff">
<path fill="#fb295c" opacity="1.00" d=" M 110.86 171.43 C 116.67 171.06 121.29 167.32 125.00 163.15 C 128.67 167.17 133.08 170.99 138.76 171.46 L 139.59 171.61 C 138.93 178.42 140.98 185.94 137.17 192.10 C 134.97 196.22 130.54 198.76 126.00 199.39 C 118.05 199.92 110.21 193.23 110.55 185.03 C 110.55 180.49 110.27 175.93 110.86 171.43 M 117.88 180.16 C 116.47 183.98 121.72 184.30 124.11 185.49 C 122.04 185.53 119.96 185.55 117.89 185.65 C 118.07 186.32 118.42 187.66 118.60 188.33 C 120.87 188.74 122.99 189.65 124.99 190.77 C 127.89 188.91 133.12 188.82 132.88 184.28 C 130.68 183.11 128.38 182.13 125.97 181.47 C 128.01 181.43 130.05 181.35 132.09 181.15 C 131.33 177.95 127.29 178.02 125.00 176.31 C 122.72 177.74 119.77 178.21 117.88 180.16 Z" />
</g>
</svg>

<?xml version="1.0" encoding="utf-8"?>
<!-- Generator: Adobe Illustrator 26.0.3, SVG Export Plug-In . SVG Version: 6.00 Build 0)  -->
<svg version="1.1" id="Layer_1" xmlns="http://www.w3.org/2000/svg" xmlns:xlink="http://www.w3.org/1999/xlink" x="0px" y="0px"
	 viewBox="0 0 250 250" style="enable-background:new 0 0 250 250;" xml:space="preserve">
<style type="text/css">
	.st0{fill:#FFFFFF;}
	.st1{fill:#F6F5F4;}
	.st2{fill:#FB295C;}
</style>
<circle class="st0" cx="125" cy="125.5" r="125"/>
<g id="_x23_f6f5f4ff">
	<path class="st1" d="M117.9,180.2c1.9-1.9,4.8-2.4,7.1-3.9c2.3,1.7,6.3,1.6,7.1,4.8c-2,0.2-4.1,0.3-6.1,0.3
		c2.4,0.7,4.7,1.6,6.9,2.8c0.2,4.5-5,4.6-7.9,6.5c-2-1.1-4.1-2-6.4-2.4c-0.2-0.7-0.5-2-0.7-2.7c2.1-0.1,4.2-0.1,6.2-0.2
		C121.7,184.3,116.5,184,117.9,180.2z"/>
</g>
<g id="_x23_000000ff">
	<path d="M157.6,77.3c-2.7-2.2-1.3-7.5,2.4-7.7c3.6,0.2,6.9,2,10.3,3.1c12.9,4.4,26.6,6.7,40.2,6c3.7,6,1,13,0.8,19.4
		c-1.6,10.8-4.1,22.2-11.9,30.3c-3.1,2.8-6.7,6-11.2,5.3c-1.5,0-1.7-1.6-2.1-2.6c-5-14.3-9-29-15.7-42.6
		C168.1,82.9,161.9,81,157.6,77.3z"/>
	<path d="M39.8,79.9c15.5,0.2,31-2.7,45.5-8.3c2-0.7,4.5-1.8,6.4-0.5c2.4,1.2,2.3,4.7,1.3,6.7c-4.3,3.7-10.6,5.5-13.2,11
		c-7.4,14.5-11.5,30.3-16.8,45.6c-4.8,1.5-9.2-2-12.5-5c-8.1-8.6-10.6-20.7-12-32C38.5,91.7,35.5,84.7,39.8,79.9z"/>
	<path d="M83.4,120.6c-0.5-5.5,4-11.1,9.6-11.1c6-0.8,12,5.2,10.6,11.3c-0.5,0.2-1.4,0.6-1.8,0.8c-1.2-1.8-1.6-3.9-2.5-5.8
		c-1.9-2.5-5.9-4.2-8.7-2c-2.9,1.3-3.7,4.6-4.6,7.3C85.4,120.9,84.1,120.7,83.4,120.6z"/>
	<path d="M153.4,109.7c4.3-1,9.1,0.5,11.4,4.4c1.3,2.2,2.9,5.8,0.1,7.6c-2.1-1.7-1.9-4.9-3.8-6.8c-2-1.9-5.1-3.1-7.6-1.4
		c-3.8,1-3.6,5.3-5.4,8.1c-3-0.3-1.8-3.9-1.5-5.9C148.2,113,150.5,110.5,153.4,109.7z"/>
	<path d="M109.4,133.1c0-5.1,6.1-8.4,10.5-6.2c1.9,0.9,3.3,2.6,5.1,3.8c2.5-1.7,4.6-4.6,8-4.4c5.4-0.5,9,5.4,7.4,10.2
		c-1.9,5.4-6.7,9.3-11.2,12.6c-3.1,2.1-1.2,6.3-0.3,9.2c2.8,8.1,14.7,9.9,20.5,4.1c2.5-2.4,3.4-5.9,4.3-9.1c1.7,0.1,3.3,0.1,5,0.2
		c0.3,10.2-9.8,19.2-19.9,18c-5.7-0.5-10.1-4.3-13.8-8.3c-3.7,4.2-8.3,7.9-14.1,8.3c-10.1,1-19.9-7.9-19.6-18c1.8,0,3.6,0,5.4,0
		c0.8,3.6,1.9,7.6,5,9.9c3.5,2.8,8.5,3,12.7,1.7c5.7-2,8.5-8.4,8.1-14.1c-1.6-2.5-4.6-3.6-6.6-5.7
		C112.5,142,108.8,138.1,109.4,133.1z"/>
</g>
<g id="_x23_fb295cff">
	<path class="st2" d="M110.9,171.4c5.8-0.4,10.4-4.1,14.1-8.3c3.7,4,8.1,7.8,13.8,8.3l0.8,0.1c-0.7,6.8,1.4,14.3-2.4,20.5
		c-2.2,4.1-6.6,6.7-11.2,7.3c-7.9,0.5-15.8-6.2-15.4-14.4C110.6,180.5,110.3,175.9,110.9,171.4 M117.9,180.2
		c-1.4,3.8,3.8,4.1,6.2,5.3c-2.1,0-4.2,0.1-6.2,0.2c0.2,0.7,0.5,2,0.7,2.7c2.3,0.4,4.4,1.3,6.4,2.4c2.9-1.9,8.1-1.9,7.9-6.5
		c-2.2-1.2-4.5-2.1-6.9-2.8c2,0,4.1-0.1,6.1-0.3c-0.8-3.2-4.8-3.1-7.1-4.8C122.7,177.7,119.8,178.2,117.9,180.2z"/>
</g>
</svg>
